!!!OTL: No_7_Niski'gwûn's_Dream_Song.krn
!!!REG: Great_Lakes
!!!LANG: Non-Tone
!!!LING_GROUP: Algonquin
!!!SOCIAL_FUNCTION: songs of war
**kern	**kern
*staff2	*staff1
*clefF4	*clefF4
*k[f#]	*k[f#]
*M3/4	*M3/4
8GG/L	8.d\L
8GG/J	.
.	16d\Jk
=1	=1
8GG/L	2.e-\
8GG/J	.
8GG/L	.
8GG/J	.
8GG/L	.
8GG/J	.
=2||	=2||
*M2/4	*M2/4
2r	2d\
=3||	=3||
*M3/4	*M3/4
2.r	4d\
.	4B\
.	8.d\L
.	16d\Jk
=4	=4
2.r	[2d\
.	16.d\LL]
.	32e\JK
.	8d\J
=5||	=5||
*M2/4	*M2/4
2r	8.B\L
.	16c\Jk
.	8B\L
.	8A\J
=6||	=6||
*M3/4	*M3/4
2.r	4G\
.	4.G\
.	8G\
=7||	=7||
*M2/4	*M2/4
2r	[2G\
=8	=8
2r	4G\]
.	4d\
=9	=9
2r	[4B\
.	(16.B\LL]
.	32c\K)
.	16B\
.	16A\JJ
=10	=10
2r	16G\LK
.	8.G\J
.	8G\L
.	8G\J
=11	=11
2r	4E\
.	8.G\L
.	16G\Jk
=12||	=12||
*M3/4	*M3/4
2.r	[2G\
.	16.G\LL]
.	32A\JK
.	8G\J
=13	=13
2.r	4E\
.	4E\
.	8E\L
.	8E\J
=14||	=14||
*M2/4	*M2/4
2r	2D\
=15||	=15||
*M3/4	*M3/4
2.r	4D\
.	4BB/
.	8.D\L
.	16D\Jk
=16||	=16||
*M2/4	*M2/4
2r	2D\
=17	=17
2r	8D\L
.	8D\J
.	4BB/
=18	=18
2r	2GG/
==	==
*-	*-
